X: 21
T: String Quartet No. 6 in B\b Major, Op. 18, No. 6 mvt 1
C: Ludwig van Beethoven
%%abc-version 2.0
%%abcx-abcm2ps-target-version 5.9.1 (29 Sep 2008)
%%abc-creator hum2abc beta
%%abcx-conversion-date 2021/01/27 10:01:10
%%abc-edited-by Craig Stuart Sapp
%%abcx-initial-encoding-date 2006/02/13/
%%gracespace 0 6 6
%%humdrum-veritas 4081029661
%%humdrum-veritas-data 445129940
%%linebreak <none>
%%barnumbers 0
L: 1/8
M: 4/4
N: Derived from quartet06-1.krn
Q: "Allegro con brio" 1/4=184
%%staves [1 2 3 4]
V: 1 clef=treble
V: 2 clef=treble
V: 3 clef=alto
V: 4 clef=bass
K: Bb
[V:1] B,6{/G} F=E/F/ | 
[V:2] B,FDF DFDF | 
[V:3] B,2B,2B,2B,2 | 
[V:4] B,,2z2z4 | 
[V:1] D2B2F2d2 | 
[V:2] DFDF DFDF | 
[V:3] B,2B,2B,2B,2 | 
[V:4] z8 | 
[V:1] B6{/g} f=e/f/ | 
[V:2] DFDF DFDF | 
[V:3] B,2B,2B,2B,2 | 
[V:4] z8 | 
[V:1] d2b2f2d'2 | 
[V:2] DFDF DFDF | 
[V:3] B,2B,2B,2B,2 | 
[V:4] z8 | 
[V:1] b6z2 | 
[V:2] DFDF DFDF | 
[V:3] B,2B,2B,2B,2 | 
[V:4] z4z2{/C,} B,,A,,/B,,/ | 
[V:1] z8 | 
[V:2] EFEF EFEF | 
[V:3] A,2A,2A,2A,2 | 
[V:4] C,2F,,2C,2F,,2 | 
[V:1] z4z2{/c'} ba/b/ | 
[V:2] DFDF DFDF | 
[V:3] B,2B,2B,2B,2 | 
[V:4] D,4B,,2z2 | 
[V:1] c'2f2c'2f2 | 
[V:2] EFEF EFEF | 
[V:3] A,2A,2A,2A,2 | 
[V:4] z8 | 
[V:1] d'4b2z2 | 
[V:2] DFDF DFDF | 
[V:3] B,2B,2B,2B,2 | 
[V:4] z4z2{/C,} B,,A,,/B,,/ | 
[V:1] z8 | 
[V:2] EFEF EFEF | 
[V:3] A,2A,2A,2A,2 | 
[V:4] C,2F,,2C,2F,,2 | 
[V:1] z8 | 
[V:2] DFDF DBDB | 
[V:3] B,2B,2F2F2 | 
[V:4] D,4B,,4 | 
[V:1] z8 | 
[V:2] DBDB GBGB | 
[V:3] G2G2G,2G,2 | 
[V:4] G,,4C,4 | 
[V:1] z4z2{/d'} c'=b/c'/ | 
[V:2] AcAc BcBc | 
[V:3] F,2F2=E2E2 | 
[V:4] F,,2z2z4 | 
[V:1] f'2z2z4 | 
[V:2] AcAc GcGc | 
[V:3] F2F2=E2E2 | 
[V:4] z4z2{/D,} C,=B,,/C,/ | 
[V:1] z4z2{/d'} c'=b/c'/ | 
[V:2] AcAc BcBc | 
[V:3] F2F2=E2E2 | 
[V:4] F,,2z2z4 | 
[V:1] f'2z2z4 | 
[V:2] AcAc GcGc | 
[V:3] F2F2=E2E2 | 
[V:4] z4z2{/D,} C,=B,,/C,/ | 
[V:1] z8 | 
[V:2] AcGc AcGc | 
[V:3] F2=E2F2E2 | 
[V:4] F,,2{/D,} C,=B,,/C,/F,,2{/D,} C,B,,/C,/ | 
[V:1] z8 | 
[V:2] A2z2z4 | 
[V:3] F2z2z4 | 
[V:4] F,,G,,A,,B,, C,D,E,C, | 
[V:1] B,6{/G} F=E/F/ | 
[V:2] z8 | 
[V:3] D,F,D,F, D,F,D,F, | 
[V:4] B,,2B,,2B,,2B,,2 | 
[V:1] D2B2F2d2 | 
[V:2] z8 | 
[V:3] D,F,D,F, D,F,D,F, | 
[V:4] B,,2B,,2B,,2B,,2 | 
[V:1] B6{/g} f=e/f/ | 
[V:2] B,6{/G} F=E/F/ | 
[V:3] D,F,D,F, D,F,D,F, | 
[V:4] B,,2B,,2B,,2B,,2 | 
[V:1] d2b2f2d'2 | 
[V:2] D2B2F2d2 | 
[V:3] D,F,D,F, D,F,D,F, | 
[V:4] B,,2B,,2B,,2B,,2 | 
[V:1] b4z4 | 
[V:2] B4z2{/c} BA/B/ | 
[V:3] D,F,D,F, D,F,D,F, | 
[V:4] B,,2B,,2B,,2B,,2 | 
[V:1] z8 | 
[V:2] c2F2c2F2 | 
[V:3] E,F,E,F, E,F,E,F, | 
[V:4] A,,2A,,2A,,2A,,2 | 
[V:1] z4z2{/c'} ba/b/ | 
[V:2] d4B2z2 | 
[V:3] D,F,D,F, D,F,D,F, | 
[V:4] B,,2B,,2B,,2B,,2 | 
[V:1] c'2f2c'2f2 | 
[V:2] z8 | 
[V:3] E,F,E,F, E,F,E,F, | 
[V:4] A,,2A,,2A,,2A,,2 | 
[V:1] d'4b2z2 | 
[V:2] z4z2{/c} BA/B/ | 
[V:3] D,F,D,F, D,F,D,F, | 
[V:4] B,,2B,,2B,,2B,,2 | 
[V:1] z8 | 
[V:2] c2F2c2F2 | 
[V:3] E,F,E,F, E,F,E,F, | 
[V:4] A,,2A,,2A,,2A,,2 | 
[V:1] z8 | 
[V:2] d4B4 | 
[V:3] D,2z2z4 | 
[V:4] B,,2z2D4 | 
[V:1] z4b4- | 
[V:2] G4=E4 | 
[V:3] D4B,4 | 
[V:4] B,4G,4 | 
[V:1] b4a3g | 
[V:2] ^C4D4 | 
[V:3] G,4A,4- | 
[V:4] =E,4F,4 | 
[V:1] f=edc =BfdB | 
[V:2] F6D2 | 
[V:3] A,2_A,2G,2F,2 | 
[V:4] D,4G,4 | 
[V:1] c2c4dc | 
[V:2] =E2G4G2 | 
[V:3] =E,2=E4E2 | 
[V:4] C,2C4C2 | 
[V:1] =Bcd=e fga=b | 
[V:2] G2G4G2 | 
[V:3] F2F4F2 | 
[V:4] C,2C4C2 | 
[V:1] c'd'=e'f'g'2g'2 | 
[V:2] G2=e4de | 
[V:3] =E2c4=Bc | 
[V:4] C,2C2C,2C2 | 
[V:1] g'2g'2g'2g'2 | 
[V:2] f=edc =BAGF | 
[V:3] dc=BA GF=ED | 
[V:4] C,2C2C,2C2 | 
[V:1] =e'2c4dc | 
[V:2] =E2[G,4E4][G,2E2] | 
[V:3] C2C4C2 | 
[V:4] C,2C,4C,2 | 
[V:1] =Bcd=e fga=b | 
[V:2] [G,2F2][G,4F4][G,2F2] | 
[V:3] D2D4D2 | 
[V:4] C,,2C,4C,2 | 
[V:1] c'd'=e'f'g'2g'2 | 
[V:2] [G,2=E2]=e4de | 
[V:3] C2c4=Bc | 
[V:4] C,,2C,2C,,2C,C, | 
[V:1] g'2g'2g'2g'2 | 
[V:2] f=edc =BAGF | 
[V:3] dc=BA GF=ED | 
[V:4] =B,,C,D,=E, F,G,A,=B, | 
[V:1] =e'c'g'g' e'c'g'g' | 
[V:2] =E2=B2c2B2 | 
[V:3] C2F2=E2F2 | 
[V:4] C2G,2C2G,2 | 
[V:1] =e'c'g'g' e'c'g'g' | 
[V:2] c2f2=e2=b2 | 
[V:3] =E2=B2c2[F2d2] | 
[V:4] C2G,2C,2G,,2 | 
[V:1] =e'2z2c2z2 | 
[V:2] c'2z2c2z2 | 
[V:3] [=E2c2]z2C2z2 | 
[V:4] C,,2z2C,2z2 | 
[V:1] C2z2z2C2 | 
[V:2] C2z2z4 | 
[V:3] C,2z2z4 | 
[V:4] C,,2z2z4 | 
[V:1] A2z2A3A | 
[V:2] C2z2C3C | 
[V:3] F2z2F3F | 
[V:4] F,2z2F,3F, | 
[V:1] A4-A3A | 
[V:2] C4-C3C | 
[V:3] F4-F3F | 
[V:4] F,4-F,3F, | 
[V:1] {/c}B2>A2 {/c}B3A | 
[V:2] C2>C2C3C | 
[V:3] {/A}G2>F2 {/A}G3F | 
[V:4] =E,2>F,2E,3F, | 
[V:1] G4-G3C | 
[V:2] C2_D2C2B,2 | 
[V:3] =E8 | 
[V:4] C,8 | 
[V:1] c2z2c3c | 
[V:2] _A,2z2_A3A | 
[V:3] F2z2F3F | 
[V:4] F,2z2z4 | 
[V:1] c4-c3c | 
[V:2] _A4-A3A | 
[V:3] F4-F3F | 
[V:4] z8 | 
[V:1] =e2>f2e3f | 
[V:2] {/c}B2>_A2 {/c}B3A | 
[V:3] {/_A}G2>F2 {/A}G3F | 
[V:4] z8 | 
[V:1] c8 | 
[V:2] G6=E2 | 
[V:3] =E6B,2 | 
[V:4] C2_D2C2C,2 | 
[V:1] c2z2c3c | 
[V:2] F2z2F3F | 
[V:3] _A,2z2=A,3A, | 
[V:4] F,2z2E,3E, | 
[V:1] f4-f3_d | 
[V:2] F4-F3B | 
[V:3] B,4-B,3F | 
[V:4] _D,4-D,3_D | 
[V:1] c2z2B2z2 | 
[V:2] _A2z2G2z2 | 
[V:3] E2z2E2z2 | 
[V:4] E2z2_D2z2 | 
[V:1] e8 | 
[V:2] _A8 | 
[V:3] E8 | 
[V:4] C8 | 
[V:1] _A2z2A3A | 
[V:2] _D2z2D3D | 
[V:3] F,2z2F,3F, | 
[V:4] _D,2z2D,3D, | 
[V:1] _d4-d3B | 
[V:2] _D4-D3_G | 
[V:3] _G,4-G,3_D | 
[V:4] B,,4-B,,3B, | 
[V:1] _A2z2G2z2 | 
[V:2] F2z2=E2z2 | 
[V:3] C2z2C2z2 | 
[V:4] C2z2B,2z2 | 
[V:1] c4-c3B | 
[V:2] F4-F3G | 
[V:3] C4-C3_D | 
[V:4] _A,4-A,3B, | 
[V:1] _A2z2G2z2 | 
[V:2] F2z2=E2z2 | 
[V:3] C2z2C2z2 | 
[V:4] C2z2B,2z2 | 
[V:1] c4-c3B | 
[V:2] F4-F3G | 
[V:3] C4-C3D | 
[V:4] A,4-A,3B, | 
[V:1] A2a2z2g2 | 
[V:2] F2z2=E2z2 | 
[V:3] C2z2C2z2 | 
[V:4] C2z2B,2z2 | 
[V:1] c'6c2 | 
[V:2] F8 | 
[V:3] C8 | 
[V:4] A,8 | 
[V:1] b6B2 | 
[V:2] G8 | 
[V:3] C8 | 
[V:4] =E,8 | 
[V:1] a6A2 | 
[V:2] A6F2 | 
[V:3] C6D2 | 
[V:4] F,6D,2 | 
[V:1] g2G2=e2=E2 | 
[V:2] z2D2z2B,2 | 
[V:3] z2B,2z2G,2 | 
[V:4] B,,2z2C,2z2 | 
[V:1] c'4-c'ccc | 
[V:2] z2f2=e2f2 | 
[V:3] z2A2^G2A2 | 
[V:4] z8 | 
[V:1] b4-bBBB | 
[V:2] z2G2^F2G2 | 
[V:3] z2c4c2 | 
[V:4] z2=E2^D2E2 | 
[V:1] a4-aAAA | 
[V:2] z2A2G2F2 | 
[V:3] z2C2^C2D2 | 
[V:4] z2F,2=E,2D,2 | 
[V:1] gGGG fFFF | 
[V:2] =E2=e2z2d2 | 
[V:3] A,2A2z2A2 | 
[V:4] ^C,2z2D,2z2 | 
[V:1] eEEE dDDD | 
[V:2] z2c2z2B2 | 
[V:3] z2F2z2F2 | 
[V:4] A,,2z2B,,2z2 | 
[V:1] cCCC =B=B,B,B, | 
[V:2] z2A2z2F2 | 
[V:3] z2D2z2D2 | 
[V:4] ^F,,2z2G,,2z2 | 
[V:1] B,=EGB =egbb | 
[V:2] =E2z2z4 | 
[V:3] G,2z2z4 | 
[V:4] ^C,2z2z4 | 
[V:1] A,DFA dfaa | 
[V:2] [A,2F2]z2z4 | 
[V:3] F,2z2z4 | 
[V:4] D,2z2z4 | 
[V:1] g^fga b=bc'^c' | 
[V:2] [D2d2]z2z4 | 
[V:3] [B,2G2]z2z4 | 
[V:4] B,,2z2z4 | 
[V:1] d'8 | 
[V:2] D^cd=e f^fg_a | 
[V:3] [=B,2_A2]z2z4 | 
[V:4] =B,,2z2z4 | 
[V:1] c'4-c'f'c'a | 
[V:2] a4-ac'af | 
[V:3] C,F,A,C FAcc | 
[V:4] C,2z2z4 | 
[V:1] g8 | 
[V:2] =e8 | 
[V:3] B8 | 
[V:4] C,,=E,,G,,C, =E,G,CC | 
[V:1] fc=Bc AcAc | 
[V:2] f2z2z4 | 
[V:3] A2z2z2{/G} F=E/F/ | 
[V:4] F,2z2z4 | 
[V:1] BcBc BcBc | 
[V:2] z8 | 
[V:3] G2C2G2C2 | 
[V:4] z8 | 
[V:1] A2z2z2{/g} f=e/f/ | 
[V:2] FC=B,C A,CA,C | 
[V:3] A4F2z2 | 
[V:4] z8 | 
[V:1] g2c2g2c2 | 
[V:2] B,C=EC B,CEC | 
[V:3] z8 | 
[V:4] z8 | 
[V:1] a4f2AF | 
[V:2] A,CFC A,CCC | 
[V:3] z4z2{/B,} A,G,/A,/ | 
[V:4] z4z2{/G,,} F,,=E,,/F,,/ | 
[V:1] =EFGA Bcd=e | 
[V:2] B2G2B2G2 | 
[V:3] [C,2B,2][C,2G,2][C,2B,2][C,2G,2] | 
[V:4] G,,2C,,2G,,2C,,2 | 
[V:1] fgabc'2c'2 | 
[V:2] c4A2AF | 
[V:3] C4A,2CA, & C,6x2 | 
[V:4] A,,4F,,2F,,2 | 
[V:1] c'2c'2c'2c'2 | 
[V:2] =EFGA Bcd=e | 
[V:3] G,A,B,C D=EFG | 
[V:4] C,,2C,2C,,2C,2 | 
[V:1] c'c'd'=e' f'c'd'e' | 
[V:2] faag faag | 
[V:3] AccB AccB | 
[V:4] F,,F,F,F, F,,F,F,F, | 
[V:1] f'c'd'=e' f'c'd'e' | 
[V:2] faag faag | 
[V:3] AccB AccB | 
[V:4] F,,F,F,F, F,,F,F,F, | 
[V:1] f'2z2[G2B2=e2]z2 |[1 
[V:2] f2z2[G,2=E2c2]z2 | 
[V:3] A2z2[C,2C2]z2 | 
[V:4] F,,2z2[C,,2C,2]z2 | 
[V:1] [F2A2f2]z2z4 |[2 
[V:2] [A,2F2c2]z2z4 | 
[V:3] [F,2C2]z2z4 | 
[V:4] F,,2z2z4 | 
[V:1] [F2A2f2]z2z2{/D} C=B,/C/ | 
[V:2] [A,2F2c2]z2z2{/D} C=B,/C/ | 
[V:3] [F,2C2]z2z2{/D} C=B,/C/ | 
[V:4] F,,2z2z2{/D,} C,=B,,/C,/ | 
[V:1] A,2F2C2A2 | 
[V:2] A,2F2C2A2 | 
[V:3] A,2F2C2A2 | 
[V:4] A,,2F,2C,2A,2 | 
[V:1] F6{/d} c=B/c/ | 
[V:2] F6z2 | 
[V:3] F6z2 | 
[V:4] F,6z2 | 
[V:1] A2f2c2a2 | 
[V:2] z8 | 
[V:3] z8 | 
[V:4] z8 | 
[V:1] f6z2 | 
[V:2] z8 | 
[V:3] z4z2{/D} C=B,/C/ | 
[V:4] z8 | 
[V:1] z8 | 
[V:2] z4z2{/d} c=B/c/ | 
[V:3] A,2z2z4 | 
[V:4] F,,A,,F,,A,, F,,A,,F,,A,, | 
[V:1] z2{/d'} c'=b/c'/a2z2 | 
[V:2] A2z2z4 | 
[V:3] z4z2{/D} C=B,/C/ | 
[V:4] F,,2z2z4 | 
[V:1] z8 | 
[V:2] z4z2{/d} c=B/c/ | 
[V:3] A,2z2z4 | 
[V:4] F,,A,,F,,A,, F,,A,,F,,A,, | 
[V:1] z2{/z2 d'2} c'=b/c'/a2z2 | 
[V:2] A2z2z4 | 
[V:3] z4z2{/D} C=B,/C/ | 
[V:4] F,,2z2z4 | 
[V:1] c8 | 
[V:2] C8 | 
[V:3] A,8 | 
[V:4] F,,A,,F,,A,, F,,A,,F,,A,, | 
[V:1] ^c8 | 
[V:2] ^C8 | 
[V:3] G,8 | 
[V:4] E,,A,,E,,A,, E,,A,,E,,A,, | 
[V:1] [D6d6]{/e} d^c/d/ | 
[V:2] [A,6D6]z2 | 
[V:3] ^F,6z2 | 
[V:4] D,,A,,D,,A,, D,,A,,D,,A,, | 
[V:1] A2^f2d2a2 | 
[V:2] z8 | 
[V:3] z8 | 
[V:4] D,,A,,D,,A,, D,,A,,D,,A,, | 
[V:1] ^f2d'2f2d'2 | 
[V:2] A,2^F2D2A2 | 
[V:3] D,2A,2^F,2D2 | 
[V:4] D,,A,,D,,A,, D,,A,,D,,A,, | 
[V:1] ^f2d'2f2d'2 | 
[V:2] ^F2d2A2^f2 | 
[V:3] A,2^F2D2A2 | 
[V:4] D,,A,,D,,A,, D,,A,,D,,A,, | 
[V:1] [^f6e'6]{/d} c=B/c/ | 
[V:2] ^f6z2 | 
[V:3] A6z2 | 
[V:4] C,,A,,C,,A,, C,,A,,C,,A,, | 
[V:1] A2^f2c2a2 | 
[V:2] z8 | 
[V:3] z8 | 
[V:4] C,,A,,C,,A,, C,,A,,C,,A,, | 
[V:1] ^f2e'2f2e'2 | 
[V:2] A,2^F2C2A2 | 
[V:3] C,2A,2E,2C2 | 
[V:4] C,,A,,C,,A,, C,,A,,C,,A,, | 
[V:1] ^f2e'2f2e'2 | 
[V:2] ^F2e2A2^f2 | 
[V:3] A,2^F2C2A2 | 
[V:4] C,,A,,C,,A,, C,,A,,C,,A,, | 
[V:1] d'2z2dd'dd' | 
[V:2] g2z2z4 | 
[V:3] [D2B2]z2z4 | 
[V:4] B,,D,B,,D,z4 | 
[V:1] c'2z2dc'dc' | 
[V:2] [A2a2]z2z4 | 
[V:3] [D2d2]z2z4 | 
[V:4] ^F,,D,F,,D,z4 | 
[V:1] z8 | 
[V:2] z8 | 
[V:3] z8 | 
[V:4] z8 | 
[V:1] z8 | 
[V:2] z8 | 
[V:3] z8 | 
[V:4] z4z2A,,G,, | 
[V:1] z8 | 
[V:2] z8 | 
[V:3] z8 | 
[V:4] ^F,,G,,A,,B,, C,D,=E,^F, | 
[V:1] z8 | 
[V:2] z8 | 
[V:3] z4z2A,G, | 
[V:4] G,A,B,CD2D2 | 
[V:1] z8 | 
[V:2] z8 | 
[V:3] ^F,G,A,B, CD=E^F | 
[V:4] D2D2D2D2 | 
[V:1] z4z2cB | 
[V:2] z4z2AG | 
[V:3] GABcd2d2 | 
[V:4] B,4G,2z2 | 
[V:1] ABcd =e^fga | 
[V:2] ^FGAB cd=e^f | 
[V:3] d2d2d2d2 | 
[V:4] z8 | 
[V:1] {/c'} babc'd'2c'2 | 
[V:2] {/a} g^fgab2c2 | 
[V:3] B4G2z2 | 
[V:4] z4z2G,,F,, | 
[V:1] c'2c'2c'2c'2 | 
[V:2] c2c2c2c2 | 
[V:3] z8 | 
[V:4] =E,,F,,G,,A,, B,,C,D,=E, | 
[V:1] a4f2z2 | 
[V:2] A4F2z2 | 
[V:3] z4z2G,F, | 
[V:4] F,G,A,B,C2C2 | 
[V:1] z8 | 
[V:2] z8 | 
[V:3] =E,F,G,A, B,CD=E | 
[V:4] C2C2C2C2 | 
[V:1] z4z2B_A | 
[V:2] z4z2GF | 
[V:3] FGABc2c2 | 
[V:4] A,4F,2z2 | 
[V:1] G_ABc d=efg | 
[V:2] =EFG_A Bcd=e | 
[V:3] c2c2c2c2 | 
[V:4] z8 | 
[V:1] {/b} _agabc'2b2 | 
[V:2] {/g} f=efg_a2B2 | 
[V:3] _A4F2z2 | 
[V:4] z4z2F,,E,, | 
[V:1] b2b2b2b2 | 
[V:2] B2B2B2B2 | 
[V:3] z8 | 
[V:4] D,,E,,F,,G,, _A,,B,,C,D, | 
[V:1] g4e2z2 | 
[V:2] G4E2z2 | 
[V:3] z4z2F,E, | 
[V:4] E,F,G,_A,B,2B,2 | 
[V:1] z8 | 
[V:2] z8 | 
[V:3] D,E,F,G, _A,B,CD | 
[V:4] B,2B,2B,2B,2 | 
[V:1] z4z2_A_G | 
[V:2] z4z2FE | 
[V:3] EFG_AB2B2 | 
[V:4] G,4E,2z2 | 
[V:1] F_G_AB cdef | 
[V:2] DEF_G _ABcd | 
[V:3] B2B2B2B2 | 
[V:4] z8 | 
[V:1] {/_a} _gfgab2E_D | 
[V:2] {/f} edef_g2_A2 | 
[V:3] _G4E2_A,2 | 
[V:4] z8 | 
[V:1] C_DEF _G_ABc | 
[V:2] _A2A2A2A2 | 
[V:3] _A,2A,2A,2A,2 | 
[V:4] z8 | 
[V:1] _def_g_a2_DC | 
[V:2] F4_D2z2 | 
[V:3] F,4_D,2_G,2 | 
[V:4] z4z2_G,,2 | 
[V:1] B,C_DE F_G_AB | 
[V:2] z8 | 
[V:3] _G,2G,2G,2G,2 | 
[V:4] _G,,2G,,2G,,2G,,2 | 
[V:1] c_def_g2CB, | 
[V:2] z4z2f2 | 
[V:3] E,4C,2F2 | 
[V:4] E,,4C,,2C,B,, | 
[V:1] A,B,C_D EFGA | 
[V:2] f2f2f2f2 | 
[V:3] F2F2F2F2 | 
[V:4] A,,B,,C,_D, E,F,G,A, | 
[V:1] Bc_de fedc | 
[V:2] _dcde fedc | 
[V:3] _DCDE FEDC | 
[V:4] B,C_DE FEDC | 
[V:1] B_A_GF=E2E2 | 
[V:2] B_A_GF=E2E2 | 
[V:3] B,_A,_G,F,=E,2E,2 | 
[V:4] B,_A,_G,F,=E,2E,2 | 
[V:1] F6{/G} F=E/F/ | 
[V:2] F6z2 | 
[V:3] F,6z2 | 
[V:4] F,6z2 | 
[V:1] G2C2G2C2 | 
[V:2] z8 | 
[V:3] z8 | 
[V:4] z8 | 
[V:1] A6{/B} AG/A/ | 
[V:2] F6{/G} F=E/F/ | 
[V:3] z8 | 
[V:4] z8 | 
[V:1] B2G2B2G2 | 
[V:2] G2C2G2C2 | 
[V:3] z8 | 
[V:4] z8 | 
[V:1] c8- | 
[V:2] A2F2A2F2 | 
[V:3] z4A,2F,2 | 
[V:4] F,2C,2F,2C,2 | 
[V:1] c8- | 
[V:2] B2=E2B2E2 | 
[V:3] z4B,2G,2 | 
[V:4] G,2C,2G,2C,2 | 
[V:1] c4f4- | 
[V:2] c2F2c2F2 | 
[V:3] z4C2A,2 | 
[V:4] A,2F,2A,2F,2 | 
[V:1] f8- | 
[V:2] _d2F2=d2F2 | 
[V:3] _D2B,2=D2=B,2 | 
[V:4] B,2F,2=B,2F,2 | 
[V:1] f8- | 
[V:2] e2d2e2=B2 | 
[V:3] E2z2z4 | 
[V:4] C2=B,2C2D2 | 
[V:1] f4-fgfg | 
[V:2] c2=B2c2d2 | 
[V:3] z8 | 
[V:4] E2D2E2=B,2 | 
[V:1] f8- | 
[V:2] e2d2e2=B2 | 
[V:3] z8 | 
[V:4] C2=B,2C2D2 | 
[V:1] f4-fgfg | 
[V:2] c2=B2c2d2 | 
[V:3] z8 | 
[V:4] E2D2E2=B,2 | 
[V:1] fgfg abab | 
[V:2] e2z2fgfg | 
[V:3] z8 | 
[V:4] C2z2z4 | 
[V:1] c'd'c'd'e'2e'2 | 
[V:2] ababc'2c'2 | 
[V:3] z8 | 
[V:4] z8 | 
[V:1] e'2z2z4 | 
[V:2] c'2z2z4 | 
[V:3] F,G,F,G, A,B,A,B, | 
[V:4] z4F,G,F,G, | 
[V:1] z8 | 
[V:2] z8 | 
[V:3] CDCDE2E2 | 
[V:4] A,B,A,B,C2C2 | 
[V:1] ABAB cdcd | 
[V:2] z4ABAB | 
[V:3] E2z2z4 | 
[V:4] C2z2z4 | 
[V:1] efefg2g2 | 
[V:2] cdcde2e2 | 
[V:3] z8 | 
[V:4] z8 | 
[V:1] g2z2z4 | 
[V:2] e2z2z4 | 
[V:3] A,B,A,B, CDCD | 
[V:4] z4A,B,A,B, | 
[V:1] z8 | 
[V:2] z8 | 
[V:3] EFEFG2G2 | 
[V:4] CDCDE2E2 | 
[V:1] z8 | 
[V:2] z8 | 
[V:3] G6^FG | 
[V:4] E6DE | 
[V:1] z8 | 
[V:2] z8 | 
[V:3] A2G2F2E2 | 
[V:4] F2E2D2C2 | 
[V:1] g6^fg | 
[V:2] e6de | 
[V:3] D4C4 | 
[V:4] B,4A,4 | 
[V:1] a2g2f2e2 | 
[V:2] f2e2d2c2 | 
[V:3] C4z4 | 
[V:4] A,4z4 | 
[V:1] d4c4 | 
[V:2] B4A4 | 
[V:3] G6^FG | 
[V:4] E6DE | 
[V:1] c4z4 | 
[V:2] A4z4 | 
[V:3] ^FGFG AG=FE | 
[V:4] DEDE FEDC | 
[V:1] g6^fg | 
[V:2] e6de | 
[V:3] D4C4 | 
[V:4] B,4A,4 | 
[V:1] ^fgfg ag=fe | 
[V:2] dede fedc | 
[V:3] C4z4 | 
[V:4] A,4z4 | 
[V:1] d2c2z4 | 
[V:2] B2A2z4 | 
[V:3] z4D2C2 | 
[V:4] z4B,2A,2 | 
[V:1] e2d2z4 | 
[V:2] c2B2z4 | 
[V:3] z4E2D2 | 
[V:4] z4C2B,2 | 
[V:1] f2=e2z4 | 
[V:2] d2^c2z4 | 
[V:3] z4F2=E2 | 
[V:4] z4D2^C2 | 
[V:1] g2f2z4 | 
[V:2] e2d2z4 | 
[V:3] z4G2F2 | 
[V:4] z4E2D2 | 
[V:1] z4e4 | 
[V:2] z4c4 | 
[V:3] E4z4 | 
[V:4] C4z4 | 
[V:1] z8 | 
[V:2] z8 | 
[V:3] z8 | 
[V:4] z8 | 
[V:1] z4c4- | 
[V:2] z4F4- | 
[V:3] C8- | 
[V:4] F,8- | 
[V:1] c8 | 
[V:2] F8 | 
[V:3] C8 | 
[V:4] F,8 | 
[V:1] B,6{/G} F=E/F/ | 
[V:2] B,FDF DFDF | 
[V:3] B,2B,2B,2B,2 | 
[V:4] B,,2z2z4 | 
[V:1] D2B2F2d2 | 
[V:2] DFDF DFDF | 
[V:3] B,2B,2B,2B,2 | 
[V:4] z8 | 
[V:1] B6{/g} f=e/f/ | 
[V:2] DFDF DFDF | 
[V:3] B,2B,2B,2B,2 | 
[V:4] z8 | 
[V:1] d2b2f2d'2 | 
[V:2] DFDF DFDF | 
[V:3] B,2B,2B,2B,2 | 
[V:4] z8 | 
[V:1] b6z2 | 
[V:2] DFDF DFDF | 
[V:3] B,2B,2B,2B,2 | 
[V:4] z4z2{/C,} B,,A,,/B,,/ | 
[V:1] z8 | 
[V:2] EFEF EFEF | 
[V:3] A,2A,2A,2A,2 | 
[V:4] C,2F,,2C,2F,,2 | 
[V:1] z4z2{/c'} ba/b/ | 
[V:2] DFDF DFDF | 
[V:3] B,2B,2B,2B,2 | 
[V:4] D,4B,,2z2 | 
[V:1] c'2f2c'2f2 | 
[V:2] EFEF EFEF | 
[V:3] A,2A,2A,2A,2 | 
[V:4] z8 | 
[V:1] d'4b2z2 | 
[V:2] DFDF DFDF | 
[V:3] B,2B,2B,2B,2 | 
[V:4] z4z2{/C,} B,,A,,/B,,/ | 
[V:1] z8 | 
[V:2] EFEF EFEF | 
[V:3] A,2A,2A,2A,2 | 
[V:4] C,2F,,2C,2F,,2 | 
[V:1] z8 | 
[V:2] DFDF DBDB | 
[V:3] B,2B,2F2F2 | 
[V:4] B,,4G,,4 | 
[V:1] z8 | 
[V:2] DBDB =EBEB | 
[V:3] G2G2G,2G,2 | 
[V:4] G,,4C,4 | 
[V:1] z4z2{/d'} c'=b/c'/ | 
[V:2] AcAc BcBc | 
[V:3] F,2F2=E2E2 | 
[V:4] F,,2z2z4 | 
[V:1] f'2z2z4 | 
[V:2] AcAc GcGc | 
[V:3] F2F2=E2E2 | 
[V:4] z4z2{/D,} C,=B,,/C,/ | 
[V:1] z4z2{/d'} c'=b/c'/ | 
[V:2] AcAc BcBc | 
[V:3] F2F2=E2E2 | 
[V:4] F,,2z2z4 | 
[V:1] f'2z2z4 | 
[V:2] AcAc GcGc | 
[V:3] F2F2=E2E2 | 
[V:4] z4z2{/D,} C,=B,,/C,/ | 
[V:1] z8 | 
[V:2] AcGc AcGc | 
[V:3] F2=E2F2E2 | 
[V:4] F,,2{/D,} C,=B,,/C,/F,,2{/D,} C,B,,/C,/ | 
[V:1] z8 | 
[V:2] A2z2z4 | 
[V:3] F2z2z2{/G} F=E/F/ | 
[V:4] F,,G,,A,,B,, C,D,E,C, | 
[V:1] z8 | 
[V:2] z8 | 
[V:3] B,2{/G} F=E/F/B,2{/G} FE/F/ | 
[V:4] D,B,,E,B,, D,B,,E,B,, | 
[V:1] z4z2{/d'} ba/b/ | 
[V:2] z8 | 
[V:3] B,CDE FG_AF | 
[V:4] D,C,B,,C, D,E,F,D, | 
[V:1] e2{/c'} ba/b/e2{/c'} ba/b/ | 
[V:2] z2d2e2d2 | 
[V:3] GE_AF GEAF | 
[V:4] E,2E,2E,2E,2 | 
[V:1] e2z2z2{/c'} ba/b/ | 
[V:2] e2{/c} BA/B/E2d2 | 
[V:3] GEB,G, GE_AF | 
[V:4] E,2E,2E,2E,2 | 
[V:1] e2{/c'} ba/b/e2{/c'} ba/b/ | 
[V:2] e2d2e2d2 | 
[V:3] GE_AF GEAF | 
[V:4] E,2E,2E,2E,2 | 
[V:1] e6de | 
[V:2] e2B2z2B2 | 
[V:3] G2G2z2G2 | 
[V:4] E,2z2E2z2 | 
[V:1] f6ef | 
[V:2] z2B2z2B2 | 
[V:3] z2D2z2D2 | 
[V:4] B,2z2B,2z2 | 
[V:1] g6fg | 
[V:2] z2B2z2B2 | 
[V:3] z2E2z2G2 | 
[V:4] E2z2E2z2 | 
[V:1] _a2a2afdB | 
[V:2] z2c2z2_A2 | 
[V:3] z2F2z2F2 | 
[V:4] _A,2z2B,2z2 | 
[V:1] e6de | 
[V:2] E6DE | 
[V:3] [B,2_G2][B,2G2]z2[B,2G2] | 
[V:4] E,2z2E,2z2 | 
[V:1] f6ef | 
[V:2] F6EF | 
[V:3] z2[B,2D2]z2[B,2D2] | 
[V:4] B,,2z2B,,2z2 | 
[V:1] _g6gf | 
[V:2] _G6GF | 
[V:3] z2[B,2E2]z2[B,2E2] | 
[V:4] E,2z2E,2z2 | 
[V:1] e2e_dc2cB | 
[V:2] E2E_DC2CB, | 
[V:3] z2B,2z2=E2 | 
[V:4] _G,2z2G,2z2 | 
[V:1] A2F4GF | 
[V:2] A,2C4C2 | 
[V:3] F2A,4A,2 | 
[V:4] F,,2F,4F,2 | 
[V:1] =EFGA Bcd=e | 
[V:2] C2C4C2 | 
[V:3] B,2B,4B,2 | 
[V:4] F,,2F,4F,2 | 
[V:1] fgabc'2c'2 | 
[V:2] C2A4GA | 
[V:3] A,2F4=EF | 
[V:4] F,,2F,2F,,2F,2 | 
[V:1] c'2c'2c'2c'2 | 
[V:2] BAGF =EDCB, | 
[V:3] GF=ED CB,A,G, | 
[V:4] F,,2F,2F,,2F,2 | 
[V:1] a2F4GF | 
[V:2] A,2[F4A4][F2A2] | 
[V:3] F,2C4C2 | 
[V:4] F,,2F,4F,2 | 
[V:1] =EFGA Bcd=e | 
[V:2] [G2B2][G4B4][G2B2] | 
[V:3] C2C4C2 | 
[V:4] F,,2F,4F,2 | 
[V:1] fgabc'2c'2 | 
[V:2] [F2A2]a4ga | 
[V:3] C2F4=EF | 
[V:4] F,,2F,2F,,2F,,F,, | 
[V:1] c'2c'2c'2c'2 | 
[V:2] bagf =edcB | 
[V:3] GF=ED CB,A,G, | 
[V:4] =E,,F,,G,,A,, B,,C,D,=E, | 
[V:1] afc'c' afc'c' | 
[V:2] A2B2A2B2 | 
[V:3] F,2G2F2=E2 | 
[V:4] F,2=E,2F,2C,2 | 
[V:1] afc'c' afc'c' | 
[V:2] A2=e2f2e2 | 
[V:3] F2B2A2[B,2G2] | 
[V:4] F,,2C,,2F,,2C,,2 | 
[V:1] a2z2f2z2 | 
[V:2] f2z2f2z2 | 
[V:3] [A,2F2]z2F2z2 | 
[V:4] F,,2z2F,2z2 | 
[V:1] F2z2z2F2 | 
[V:2] F2z2z4 | 
[V:3] F,2z2z4 | 
[V:4] F,,2z2z4 | 
[V:1] d2z2d3d | 
[V:2] F2z2B3B | 
[V:3] B2z2F3F | 
[V:4] B,2z2B,3B, | 
[V:1] d4-d3d | 
[V:2] B4-B3B | 
[V:3] F4-F3F | 
[V:4] B,4-B,3B, | 
[V:1] {/f}e2>d2 {/f}e3d | 
[V:2] {/d}c2>B2 {/d}c3B | 
[V:3] F2>F2F3F | 
[V:4] A,2>B,2A,3B, | 
[V:1] c6F2 | 
[V:2] A8 | 
[V:3] F2_G2F2E2 | 
[V:4] F,8 | 
[V:1] f2z2f3f | 
[V:2] B2z2_d3d | 
[V:3] _D2z2B3B | 
[V:4] B,2z2z4 | 
[V:1] f4-f3f | 
[V:2] _d4-d3d | 
[V:3] B4-B3B | 
[V:4] z8 | 
[V:1] a2>b2a3b | 
[V:2] {/f}e2>_d2 {/f}e3d | 
[V:3] {/_d}c2>B2 {/d}c3B | 
[V:4] z8 | 
[V:1] f8 | 
[V:2] c6A2 | 
[V:3] A6E2 | 
[V:4] F2_G2F2F,2 | 
[V:1] f2z2f3f | 
[V:2] B2z2B3B | 
[V:3] _D2z2=D3D | 
[V:4] B,2z2_A,3A, | 
[V:1] b4-b3_g | 
[V:2] B4-B3B | 
[V:3] E4-E3E | 
[V:4] _G,4-G,3z | 
[V:1] f2z2e2z2 | 
[V:2] _d2z2c2z2 | 
[V:3] _A2z2_G2z2 | 
[V:4] z8 | 
[V:1] _a8 | 
[V:2] _d8 | 
[V:3] F8 | 
[V:4] z8 | 
[V:1] _d2z2d3d | 
[V:2] _G2z2G3G | 
[V:3] B,2z2B,3B, | 
[V:4] _G,2z2G,3G, | 
[V:1] _g4-g3e | 
[V:2] _G4-G3_c | 
[V:3] C4-C3_G | 
[V:4] E,4-E,3E | 
[V:1] _d2z2c2z2 | 
[V:2] B2z2A2z2 | 
[V:3] F2z2F2z2 | 
[V:4] F2z2E2z2 | 
[V:1] f4-f3e | 
[V:2] B4-B3_c | 
[V:3] F4-F3_G | 
[V:4] _D4-D3E | 
[V:1] _d2z2c2z2 | 
[V:2] B2z2A2z2 | 
[V:3] F2z2F2z2 | 
[V:4] F2z2E2z2 | 
[V:1] f4-f3e | 
[V:2] B4-B3c | 
[V:3] F4-F3G | 
[V:4] D4-D3E | 
[V:1] d2d'2z2c'2 | 
[V:2] B2z2A2z2 | 
[V:3] F2z2F2z2 | 
[V:4] F2z2E2z2 | 
[V:1] f'6f2 | 
[V:2] B8 | 
[V:3] F8 | 
[V:4] D8 | 
[V:1] e'6e2 | 
[V:2] c8 | 
[V:3] F8 | 
[V:4] A,8 | 
[V:1] d'6d2 | 
[V:2] d6B2 | 
[V:3] F6G2 | 
[V:4] B,6G,2 | 
[V:1] c'2c2a2A2 | 
[V:2] z2G2z2E2 | 
[V:3] z2E2z2C2 | 
[V:4] E,2z2F,2z2 | 
[V:1] f'4-f'fff | 
[V:2] z2B2A2B2 | 
[V:3] z2F4F2 | 
[V:4] z2D2^C2D2 | 
[V:1] e'4-e'eee | 
[V:2] z2c2=B2c2 | 
[V:3] z2A2^G2A2 | 
[V:4] z8 | 
[V:1] d'4-d'ddd | 
[V:2] z2d2c2B2 | 
[V:3] z2F2^F2G2 | 
[V:4] z2B,2A,2G,2 | 
[V:1] c'ccc bBBB | 
[V:2] A2a2z2g2 | 
[V:3] D2D2z2D2 | 
[V:4] ^F,2z2G,2z2 | 
[V:1] _a_AAA gGGG | 
[V:2] z2f2z2e2 | 
[V:3] z2B,2z2B,2 | 
[V:4] D,2z2E,2z2 | 
[V:1] fFFF =e=EEE | 
[V:2] z2d2z2B2 | 
[V:3] z2F,2z2F,2 | 
[V:4] =B,,2z2C,2z2 | 
[V:1] EAce ac'e'e' | 
[V:2] A2z2z4 | 
[V:3] [C,2C2]z2z4 | 
[V:4] ^F,,2z2z4 | 
[V:1] DGBd gbd'd' | 
[V:2] [D2B2]z2z4 | 
[V:3] G,2z2z4 | 
[V:4] G,,2z2z4 | 
[V:1] {/d'} c'=bc'd' e'=e'f'^f' | 
[V:2] [E2c2]z2z4 | 
[V:3] G2z2z4 | 
[V:4] E,2z2z4 | 
[V:1] g'8 | 
[V:2] B^fga b=bc'_d' | 
[V:3] _D2z2z4 | 
[V:4] =E,2z2z4 | 
[V:1] f'4-f'b'f'd' | 
[V:2] d'4-d'bd'b | 
[V:3] E,B,DF Bdff | 
[V:4] F,2z2z4 | 
[V:1] c'8 | 
[V:2] a8 | 
[V:3] e8 | 
[V:4] F,,A,,C,F, A,CFF | 
[V:1] bf=ef dfdf | 
[V:2] b2z2z4 | 
[V:3] d2z2z2{/c} BA/B/ | 
[V:4] B,2z2z4 | 
[V:1] efef efef | 
[V:2] z8 | 
[V:3] c2F2c2F2 | 
[V:4] z8 | 
[V:1] d2z2z2{/c'} ba/b/ | 
[V:2] BF=EF DFDF | 
[V:3] d4B2z2 | 
[V:4] z8 | 
[V:1] c'2f2c'2f2 | 
[V:2] EFEF EFEF | 
[V:3] z4A,2F,2 | 
[V:4] z8 | 
[V:1] d'4b2dB | 
[V:2] DFDF DF {/E} DC/D/ | 
[V:3] z4B,2F,F, | 
[V:4] z4z2{/C,} B,,A,,/B,,/ | 
[V:1] ABcd efga | 
[V:2] E2C2E2C2 | 
[V:3] F,2F,2F,2F,2 | 
[V:4] C,2F,,2C,2F,,2 | 
[V:1] bc'd'e'f'2f'2 | 
[V:2] F4D2dB | 
[V:3] F,4F,2FD | 
[V:4] D,4B,,2B,,2 | 
[V:1] f'2f'2f'2f'2 | 
[V:2] ABcd efga | 
[V:3] CDEF GABc | 
[V:4] F,,2F,2F,,2F,2 | 
[V:1] f'f'g'a' b'f'g'a' | 
[V:2] bffe dffe | 
[V:3] dddc Bddc | 
[V:4] B,,B,B,B, B,,B,B,B, | 
[V:1] b'f'g'a' b'f'g'a' | 
[V:2] dffe dffe | 
[V:3] Bddc Bddc | 
[V:4] B,,B,B,B, B,,B,B,B, | 
[V:1] b'2z2[F2c2a2]z2 |[1 
[V:2] d2z2[F2c2]z2 | 
[V:3] B2z2F2z2 | 
[V:4] B,,2z2F,2z2 | 
[V:1] [F2d2b2]z2z2{/D} C=B,/C/ |[2 
[V:2] [B,2F2d2]z2z2{/D} C=B,/C/ | 
[V:3] B,2z2z2{/D} C=B,/C/ | 
[V:4] B,,2z2z2{/D,} C,=B,,/C,/ | 
[V:1] [F2d2b2]z2z4 |]  
[V:2] [B,2F2d2]z2z4 |]  
[V:3] B,2z2z4 |]  
[V:4] B,,2z2z4 |]  


